src/16/actions/filmgrain.svg

<svg xmlns="http://www.w3.org/2000/svg" width="16" height="16"><defs><style id="current-color-scheme" type="text/css"></style></defs><path d="M1 1v14h14V1zm3 2h8v4H4zM2 3h1v1H2zm11 0h1v1h-1zM2 6h1v1H2zm11 0h1v1h-1zM2 9h1v1H2zm2 0h8v4H4zm9 0h1v1h-1zM2 12h1v1H2zm11 0h1v1h-1z" fill="currentColor" color="#565656"/></svg>

<svg xmlns="http://www.w3.org/2000/svg" width="16" height="16" version="1.1" viewBox="0 0 16 16">
 <defs>
  <style id="current-color-scheme" type="text/css">
   .ColorScheme-Text { color:#565656; } .ColorScheme-Highlight { color:#5294e2; }
  </style>
 </defs>
 <path style="fill:currentColor" class="ColorScheme-Text" d="M 1,1 V 15 H 15 V 1 Z m 3,2 h 8 V 7 H 4 Z M 2,3 H 3 V 4 H 2 Z m 11,0 h 1 V 4 H 13 Z M 2,6 H 3 V 7 H 2 Z m 11,0 h 1 V 7 H 13 Z M 2,9 h 1 v 1 H 2 Z m 2,0 h 8 v 4 H 4 Z m 9,0 h 1 v 1 H 13 Z M 2,12 h 1 v 1 H 2 Z m 11,0 h 1 v 1 h -1 z"/>
</svg>
